assets/dude/We–Waylon.svg

<svg width="233" height="124" viewBox="0 0 233 124" fill="none" xmlns="http://www.w3.org/2000/svg">
<path d="M142.2 13.9799C142.2 13.2799 141.64 12.7199 140.94 12.7199H137.44C136.46 12.7199 136.18 11.3199 136.18 11.3199C134.5 4.87988 128.48 0.119873 121.48 0.119873C114.48 0.119873 108.46 4.87988 106.78 11.3199C106.78 11.3199 106.5 12.7199 105.52 12.7199H102.02C101.32 12.7199 100.76 13.2799 100.76 13.9799V46.7399C100.76 47.4399 101.32 47.9999 102.02 47.9999H117.42C117.98 47.9999 118.26 48.2799 118.26 48.5599C118.26 48.9799 117.84 49.8199 117.84 49.8199L107.06 73.8999C106.36 75.2999 105.8 75.7199 105.1 75.7199H92.6395C91.9395 75.7199 91.3795 75.2999 90.5395 73.7599L79.8995 49.8199C79.8995 49.8199 79.4795 48.9799 79.4795 48.5599C79.4795 48.2799 79.7595 47.9999 80.3195 47.9999H90.1195C90.8195 47.9999 91.3795 47.4399 91.3795 46.7399V13.9799C91.3795 13.2799 90.8195 12.7199 90.1195 12.7199H87.3195C86.3395 12.7199 86.0595 11.3199 86.0595 11.3199C84.3795 4.87988 78.3595 0.119873 71.3595 0.119873C64.3595 0.119873 58.3395 4.87988 56.6595 11.3199C56.6595 11.3199 56.3795 12.7199 55.3995 12.7199H52.5995C51.8995 12.7199 51.3395 13.2799 51.3395 13.9799V46.7399C51.3395 47.4399 51.8995 47.9999 52.5995 47.9999H64.4995C65.0595 47.9999 65.3395 48.2799 65.3395 48.5599C65.3395 48.9799 64.9195 49.8199 64.9195 49.8199L54.1395 73.8999C53.4395 75.2999 52.8795 75.7199 52.1795 75.7199H39.7195C39.0195 75.7199 38.4595 75.2999 37.6195 73.7599L26.9795 49.8199C26.9795 49.8199 26.5595 48.9799 26.5595 48.5599C26.5595 48.2799 26.8395 47.9999 27.3995 47.9999H40.6995C41.3995 47.9999 41.9595 47.4399 41.9595 46.7399V13.9799C41.9595 13.2799 41.3995 12.7199 40.6995 12.7199H37.1995C36.2195 12.7199 35.9395 11.3199 35.9395 11.3199C34.2595 4.87988 28.2395 0.119873 21.2395 0.119873C14.2395 0.119873 8.21953 4.87988 6.53953 11.3199C6.53953 11.3199 6.25953 12.7199 5.27953 12.7199H1.77953C1.07953 12.7199 0.519531 13.2799 0.519531 13.9799V46.7399C0.519531 47.4399 1.07953 47.9999 1.77953 47.9999H10.0395C10.7395 47.9999 11.4395 48.5599 11.9995 49.8199L39.0195 110.86C39.2995 111.42 40.5595 113.52 43.4995 113.52C46.1595 113.52 47.5595 111.42 47.8395 110.86L68.4195 64.7999C68.4195 64.7999 69.1195 62.9799 69.9595 62.9799C70.7995 62.9799 71.4995 64.7999 71.4995 64.7999L91.9395 110.86C92.2195 111.42 93.4795 113.52 96.4195 113.52C99.0795 113.52 100.48 111.42 100.76 110.86L127.92 49.8199C128.48 48.5599 129.18 47.9999 129.88 47.9999H140.94C141.64 47.9999 142.2 47.4399 142.2 46.7399V13.9799Z" fill="#FF1C31"/>
<path d="M176.872 47.9999H216.213C219.713 47.9999 222.512 50.3799 222.512 53.8799C222.512 54.5799 223.073 55.1399 223.773 55.1399H231.053C231.753 55.1399 232.312 54.5799 232.312 53.8799V13.9799C232.312 13.2799 231.753 12.7199 231.053 12.7199H206.693C205.713 12.7199 205.432 11.3199 205.432 11.3199C203.752 4.87988 197.733 0.119873 190.732 0.119873C183.732 0.119873 177.713 4.87988 176.033 11.3199C176.033 11.3199 175.753 12.7199 174.773 12.7199H150.412C149.712 12.7199 149.152 13.2799 149.152 13.9799V46.7399C149.152 47.4399 149.712 47.9999 150.412 47.9999H164.273C164.973 47.9999 165.533 48.5599 165.533 49.2599V74.4599C165.533 75.1599 164.973 75.7199 164.273 75.7199H150.412C149.712 75.7199 149.152 76.2799 149.152 76.9799V109.74C149.152 110.44 149.712 111 150.412 111H174.773C175.753 111 176.033 112.4 176.033 112.4C177.713 118.84 183.732 123.6 190.732 123.6C197.733 123.6 203.752 118.84 205.432 112.4C205.432 112.4 205.713 111 206.693 111H231.053C231.753 111 232.312 110.44 232.312 109.74V69.8399C232.312 69.1399 231.753 68.5799 231.053 68.5799H223.773C223.073 68.5799 222.512 69.1399 222.512 69.8399C222.512 73.3399 219.713 75.7199 216.213 75.7199H176.872C176.172 75.7199 175.613 75.1599 175.613 74.4599V66.8999C175.613 66.1999 176.172 65.6399 176.872 65.6399H188.632C189.332 65.6399 189.893 66.1999 189.893 66.8999V68.1599C189.893 68.8599 190.452 69.4199 191.152 69.4199H210.053C210.753 69.4199 211.312 68.8599 211.312 68.1599V55.5599C211.312 54.8599 210.753 54.2999 210.053 54.2999H191.152C190.452 54.2999 189.893 54.8599 189.893 55.5599V56.8199C189.893 57.5199 189.332 58.0799 188.632 58.0799H176.872C176.172 58.0799 175.613 57.5199 175.613 56.8199V49.2599C175.613 48.5599 176.172 47.9999 176.872 47.9999Z" fill="#FF1C31"/>
</svg>

<svg xmlns="http://www.w3.org/2000/svg" fill="none" viewBox="0 0 233 124"><path fill="#FF1C31" d="M142.2 13.98c0-.7-.56-1.26-1.26-1.26h-3.5c-.98 0-1.26-1.4-1.26-1.4-1.68-6.44-7.7-11.2-14.7-11.2-7 0-13.02 4.76-14.7 11.2 0 0-.28 1.4-1.26 1.4h-3.5c-.7 0-1.26.56-1.26 1.26v32.76c0 .7.56 1.26 1.26 1.26h15.4c.56 0 .84.28.84.56 0 .42-.42 1.26-.42 1.26L107.06 73.9c-.7 1.4-1.26 1.82-1.96 1.82H92.64c-.7 0-1.26-.42-2.1-1.96L79.9 49.82s-.42-.84-.42-1.26c0-.28.28-.56.84-.56h9.8c.7 0 1.26-.56 1.26-1.26V13.98c0-.7-.56-1.26-1.26-1.26h-2.8c-.98 0-1.26-1.4-1.26-1.4-1.68-6.44-7.7-11.2-14.7-11.2-7 0-13.02 4.76-14.7 11.2 0 0-.28 1.4-1.26 1.4h-2.8c-.7 0-1.26.56-1.26 1.26v32.76c0 .7.56 1.26 1.26 1.26h11.9c.56 0 .84.28.84.56 0 .42-.42 1.26-.42 1.26L54.14 73.9c-.7 1.4-1.26 1.82-1.96 1.82H39.72c-.7 0-1.26-.42-2.1-1.96L26.98 49.82s-.42-.84-.42-1.26c0-.28.28-.56.84-.56h13.3c.7 0 1.26-.56 1.26-1.26V13.98c0-.7-.56-1.26-1.26-1.26h-3.5c-.98 0-1.26-1.4-1.26-1.4-1.68-6.44-7.7-11.2-14.7-11.2-7 0-13.02 4.76-14.7 11.2 0 0-.28 1.4-1.26 1.4h-3.5c-.7 0-1.26.56-1.26 1.26v32.76c0 .7.56 1.26 1.26 1.26h8.26c.7 0 1.4.56 1.96 1.82l27.02 61.04c.28.56 1.54 2.66 4.48 2.66 2.66 0 4.06-2.1 4.34-2.66L68.42 64.8s.7-1.82 1.54-1.82c.84 0 1.54 1.82 1.54 1.82l20.44 46.06c.28.56 1.54 2.66 4.48 2.66 2.66 0 4.06-2.1 4.34-2.66l27.16-61.04c.56-1.26 1.26-1.82 1.96-1.82h11.06c.7 0 1.26-.56 1.26-1.26V13.98zM176.872 48h39.341c3.5 0 6.299 2.38 6.299 5.88 0 .7.561 1.26 1.261 1.26h7.28c.7 0 1.259-.56 1.259-1.26v-39.9c0-.7-.559-1.26-1.259-1.26h-24.36c-.98 0-1.261-1.4-1.261-1.4-1.68-6.44-7.699-11.2-14.7-11.2-7 0-13.019 4.76-14.699 11.2 0 0-.28 1.4-1.26 1.4h-24.361c-.7 0-1.26.56-1.26 1.26v32.76c0 .7.56 1.26 1.26 1.26h13.861c.7 0 1.26.56 1.26 1.26v25.2c0 .7-.56 1.26-1.26 1.26h-13.861c-.7 0-1.26.56-1.26 1.26v32.76c0 .7.56 1.26 1.26 1.26h24.361c.98 0 1.26 1.4 1.26 1.4 1.68 6.44 7.699 11.2 14.699 11.2 7.001 0 13.02-4.76 14.7-11.2 0 0 .281-1.4 1.261-1.4h24.36c.7 0 1.259-.56 1.259-1.26v-39.9c0-.7-.559-1.26-1.259-1.26h-7.28c-.7 0-1.261.56-1.261 1.26 0 3.5-2.799 5.88-6.299 5.88h-39.341c-.7 0-1.259-.56-1.259-1.26V66.9c0-.7.559-1.26 1.259-1.26h11.76c.7 0 1.261.56 1.261 1.26v1.26c0 .7.559 1.26 1.259 1.26h18.901c.7 0 1.259-.56 1.259-1.26v-12.6c0-.7-.559-1.26-1.259-1.26h-18.901c-.7 0-1.259.56-1.259 1.26v1.26c0 .7-.561 1.26-1.261 1.26h-11.76c-.7 0-1.259-.56-1.259-1.26v-7.56c0-.7.559-1.26 1.259-1.26z"/></svg>
